X:1
T: Hudson Barn
N:22 August 2000
C:
S:Dance to your Daddie
A:
O:
R:
M:3/4
K:A
I:speed 130
%W: A
% voice 1 (1 lines, 21 notes)
K:A
M:3/4
L:1/16
A4 A2 F2 E2 C2 |B,2 B2 B2 A2 G2 E2 |A4 A2 F2 E2 C2 |A,2 A2 A2 G2 A4 |
%W:
% voice 1 (1 lines, 21 notes)
A4 A2 F2 E2 C2 |B,2 B2 B2 A2 G2 E2 |A4 A2 F2 E2 C2 |A,2 A2 A2 G2 A4 |
%W: B
% voice 1 (1 lines, 20 notes)
c4 c2 B2 c2 e2 |B4 B2 A2 G2 B2 |c4 c2 B2 c2 e2 |E2 A2 A2 G2 A4 |
%W:
% voice 1 (1 lines, 20 notes)
c4 c2 B2 c2 e2 |B4 B2 A2 G2 B2 |c4 c2 B2 c2 e2 |E2 A2 A2 G2 A4 |
